cssgg/toggle-off.svg

<svg
  width="24"
  height="24"
  viewBox="0 0 24 24"
  fill="none"
  xmlns="http://www.w3.org/2000/svg"
>
  <path
    d="M17 15C18.6569 15 20 13.6569 20 12C20 10.3431 18.6569 9 17 9C15.3431 9 14 10.3431 14 12C14 13.6569 15.3431 15 17 15Z"
    fill="currentColor"
  />
  <path
    fill-rule="evenodd"
    clip-rule="evenodd"
    d="M0 12C0 8.13401 3.13401 5 7 5H17C20.866 5 24 8.13401 24 12C24 15.866 20.866 19 17 19H7C3.13401 19 0 15.866 0 12ZM7 7H17C19.7614 7 22 9.23858 22 12C22 14.7614 19.7614 17 17 17H7C4.23858 17 2 14.7614 2 12C2 9.23858 4.23858 7 7 7Z"
    fill="currentColor"
  />
</svg>

<svg viewBox="0 0 24 24" xmlns="http://www.w3.org/2000/svg"><g><path d="M17 15c1.65 0 3-1.35 3-3 0-1.66-1.35-3-3-3 -1.66 0-3 1.34-3 3 0 1.65 1.34 3 3 3Z"/><path fill-rule="evenodd" d="M0 12c0-3.87 3.13-7 7-7h10c3.86 0 7 3.13 7 7 0 3.86-3.14 7-7 7H7c-3.87 0-7-3.14-7-7Zm7-5h10c2.76 0 5 2.23 5 5 0 2.76-2.24 5-5 5H7c-2.77 0-5-2.24-5-5 0-2.77 2.23-5 5-5Z"/></g></svg>
